X:485
T: Da yiezhu
N: C1904
O: China,Zhejiang Yuyao
S: III, 621, 2)]
R: Haozi]
M: 2/4
L: 1/16
K: G
d2e2d2B2 | A2A2z4 |
E2G2E2G2 | A2A2z4 |
d2e2d2B2 | A2d2B2G2 | A2A2z4 |
d2d2d2d2 | d2d2d2d2 |
d2c2B2A2 | G2G2z4 |
G2B2A2G2 | E2A2F2E2 | D4z4

@@@ Tune index: 7040
